web/packages/design/src/ResourceIcon/assets/googledrive.svg

<svg width="72" height="72" viewBox="0 0 72 72" fill="none" xmlns="http://www.w3.org/2000/svg">
<path d="M5.4433 58.9642L8.61856 64.4487C9.27835 65.6034 10.2268 66.5106 11.3402 67.1704L22.6804 47.5415H0C0 48.8199 0.329897 50.0982 0.989691 51.2528L5.4433 58.9642Z" fill="#0066DA"/>
<path d="M36 24.4487L24.6598 4.81982C23.5464 5.47962 22.5979 6.38683 21.9381 7.54147L0.989691 43.8301C0.342031 44.9599 0.00086232 46.2393 0 47.5415H22.6804L36 24.4487Z" fill="#00AC47"/>
<path d="M60.6592 67.1704C61.7726 66.5106 62.7211 65.6034 63.3809 64.4487L64.7005 62.1807L71.0098 51.2528C71.6695 50.0982 71.9994 48.8199 71.9994 47.5415H49.3174L54.1438 57.026L60.6592 67.1704Z" fill="#EA4335"/>
<path d="M36.0004 24.4486L47.3406 4.81977C46.2272 4.15998 44.9488 3.83008 43.6292 3.83008H28.3715C27.0519 3.83008 25.7736 4.20121 24.6602 4.81977L36.0004 24.4486Z" fill="#00832D"/>
<path d="M49.3192 47.5415H22.68L11.3398 67.1704C12.4532 67.8302 13.7316 68.1601 15.0512 68.1601H56.9481C58.2677 68.1601 59.546 67.7889 60.6594 67.1704L49.3192 47.5415Z" fill="#2684FC"/>
<path d="M60.5361 25.6858L50.0619 7.54147C49.4021 6.38683 48.4536 5.47962 47.3402 4.81982L36 24.4487L49.3196 47.5415H71.9588C71.9588 46.2631 71.6289 44.9848 70.9691 43.8301L60.5361 25.6858Z" fill="#FFBA00"/>
</svg>

<svg xmlns="http://www.w3.org/2000/svg" width="72" height="72" fill="none" viewBox="0 0 72 72"><path fill="#0066da" d="M5.443 58.964 8.62 64.45c.66 1.154 1.608 2.062 2.721 2.721l11.34-19.629H0c0 1.279.33 2.557.99 3.712z"/><path fill="#00ac47" d="M36 24.449 24.66 4.819c-1.114.66-2.062 1.568-2.722 2.722L.99 43.831A7.5 7.5 0 0 0 0 47.54h22.68z"/><path fill="#ea4335" d="M60.66 67.17c1.113-.66 2.061-1.567 2.72-2.721l1.32-2.268 6.31-10.928c.66-1.155.99-2.433.99-3.712H49.316l4.827 9.485z"/><path fill="#00832d" d="m36 24.449 11.34-19.63c-1.113-.659-2.391-.989-3.71-.989H28.37c-1.32 0-2.597.371-3.71.99z"/><path fill="#2684fc" d="M49.32 47.542H22.68L11.34 67.17c1.113.66 2.392.99 3.711.99h41.897c1.32 0 2.598-.371 3.711-.99z"/><path fill="#ffba00" d="M60.536 25.686 50.062 7.54c-.66-1.154-1.608-2.061-2.722-2.721L36 24.449 49.32 47.54h22.639c0-1.278-.33-2.556-.99-3.71z"/></svg>
